flaticon/office/coding.svg

<svg xmlns="http://www.w3.org/2000/svg" width="32" height="32" viewBox="0 0 24 24">
    <path d="M 22.199219 0.800781 L 1.800781 0.800781 C 0.800781 0.800781 0 1.601562 0 2.601562 L 0 16.601562 C 0 17.601562 0.800781 18.398438 1.800781 18.398438 L 9.480469 18.398438 L 8.878906 20.800781 L 8.800781 20.800781 C 7.679688 20.800781 6.800781 21.679688 6.800781 22.800781 C 6.800781 23.039062 6.960938 23.199219 7.199219 23.199219 L 16.800781 23.199219 C 17.039062 23.199219 17.199219 23.039062 17.199219 22.800781 C 17.199219 21.679688 16.320312 20.800781 15.199219 20.800781 L 15.121094 20.800781 L 14.519531 18.398438 L 22.199219 18.398438 C 23.199219 18.398438 24 17.601562 24 16.601562 L 24 2.601562 C 24 1.601562 23.199219 0.800781 22.199219 0.800781 Z M 0.800781 2.601562 C 0.800781 2.039062 1.238281 1.601562 1.800781 1.601562 L 22.199219 1.601562 C 22.761719 1.601562 23.199219 2.039062 23.199219 2.601562 L 23.199219 14.398438 L 0.800781 14.398438 Z M 16.359375 22.398438 L 7.679688 22.398438 C 7.839844 21.921875 8.28125 21.601562 8.800781 21.601562 L 15.238281 21.601562 C 15.761719 21.601562 16.199219 21.921875 16.359375 22.398438 Z M 14.28125 20.800781 L 9.71875 20.800781 L 10.320312 18.398438 L 13.679688 18.398438 Z M 23.199219 16.601562 C 23.199219 17.160156 22.761719 17.601562 22.199219 17.601562 L 1.800781 17.601562 C 1.238281 17.601562 0.800781 17.160156 0.800781 16.601562 L 0.800781 15.199219 L 23.199219 15.199219 Z M 23.199219 16.601562"/>
    <path d="M20 12.398438L14 12.398438C13.761719 12.398438 13.601562 12.558594 13.601562 12.800781 13.601562 13.039062 13.761719 13.199219 14 13.199219L20 13.199219C20.238281 13.199219 20.398438 13.039062 20.398438 12.800781 20.398438 12.558594 20.238281 12.398438 20 12.398438zM8.398438 10.398438C8.398438 10.160156 8.238281 10 8 10L4 10C3.761719 10 3.601562 10.160156 3.601562 10.398438 3.601562 10.640625 3.761719 10.800781 4 10.800781L8 10.800781C8.238281 10.800781 8.398438 10.640625 8.398438 10.398438zM12 10.800781L18 10.800781C18.238281 10.800781 18.398438 10.640625 18.398438 10.398438 18.398438 10.160156 18.238281 10 18 10L12 10C11.761719 10 11.601562 10.160156 11.601562 10.398438 11.601562 10.640625 11.761719 10.800781 12 10.800781zM12 12.398438L6 12.398438C5.761719 12.398438 5.601562 12.558594 5.601562 12.800781 5.601562 13.039062 5.761719 13.199219 6 13.199219L12 13.199219C12.238281 13.199219 12.398438 13.039062 12.398438 12.800781 12.398438 12.558594 12.238281 12.398438 12 12.398438zM20 5.199219L14 5.199219C13.761719 5.199219 13.601562 5.359375 13.601562 5.601562 13.601562 5.839844 13.761719 6 14 6L20 6C20.238281 6 20.398438 5.839844 20.398438 5.601562 20.398438 5.359375 20.238281 5.199219 20 5.199219zM20 7.601562L16 7.601562C15.761719 7.601562 15.601562 7.761719 15.601562 8 15.601562 8.238281 15.761719 8.398438 16 8.398438L20 8.398438C20.238281 8.398438 20.398438 8.238281 20.398438 8 20.398438 7.761719 20.238281 7.601562 20 7.601562zM12 8.398438L12.800781 8.398438C13.039062 8.398438 13.199219 8.238281 13.199219 8 13.199219 7.761719 13.039062 7.601562 12.800781 7.601562L12 7.601562C11.761719 7.601562 11.601562 7.761719 11.601562 8 11.601562 8.238281 11.761719 8.398438 12 8.398438zM12 3.601562L18 3.601562C18.238281 3.601562 18.398438 3.441406 18.398438 3.199219 18.398438 2.960938 18.238281 2.800781 18 2.800781L12 2.800781C11.761719 2.800781 11.601562 2.960938 11.601562 3.199219 11.601562 3.441406 11.761719 3.601562 12 3.601562zM10 2.398438L3.601562 2.398438 3.601562 8.800781 10 8.800781zM9.199219 8L4.398438 8 4.398438 3.199219 9.199219 3.199219zM9.199219 8"/>
</svg>

<svg xmlns="http://www.w3.org/2000/svg" width="32" height="32" viewBox="0 0 24 24">
    <path d="M22.2.8H1.8C.8.8 0 1.603 0 2.603v14c0 1 .8 1.796 1.8 1.796h7.68l-.601 2.403H8.8c-1.121 0-2 .879-2 2 0 .238.16.398.398.398h9.602c.238 0 .398-.16.398-.398 0-1.121-.879-2-2-2h-.078l-.601-2.403h7.68c1 0 1.8-.796 1.8-1.796v-14c0-1-.8-1.801-1.8-1.801zM.8 2.603c0-.563.438-1 1-1h20.4c.562 0 1 .437 1 1v11.796H.8zm15.56 19.796H7.68c.16-.476.601-.796 1.12-.796h6.438c.524 0 .961.32 1.121.796zm-2.079-1.597H9.72l.601-2.403h3.36zm8.918-4.2a.99.99 0 0 1-1 1H1.801a.99.99 0 0 1-1-1V15.2h22.398zm0 0"/>
    <path d="M20 12.398h-6c-.238 0-.398.16-.398.403 0 .238.16.398.398.398h6c.238 0 .398-.16.398-.398 0-.242-.16-.403-.398-.403zm0 0M8.398 10.398c0-.238-.16-.398-.398-.398H4c-.238 0-.398.16-.398.398 0 .243.16.403.398.403h4c.238 0 .398-.16.398-.403zm0 0M12 10.8h6c.238 0 .398-.16.398-.402 0-.238-.16-.398-.398-.398h-6c-.238 0-.398.16-.398.398 0 .243.16.403.398.403zm0 0M12 12.398H6c-.238 0-.398.16-.398.403 0 .238.16.398.398.398h6c.238 0 .398-.16.398-.398 0-.242-.16-.403-.398-.403zm0 0M20 5.2h-6c-.238 0-.398.16-.398.402 0 .238.16.398.398.398h6c.238 0 .398-.16.398-.398 0-.243-.16-.403-.398-.403zm0 0M20 7.602h-4c-.238 0-.398.16-.398.398 0 .238.16.398.398.398h4c.238 0 .398-.16.398-.398 0-.238-.16-.398-.398-.398zm0 0M12 8.398h.8c.24 0 .4-.16.4-.398 0-.238-.16-.398-.4-.398H12c-.238 0-.398.16-.398.398 0 .238.16.398.398.398zm0 0M12 3.602h6c.238 0 .398-.16.398-.403 0-.238-.16-.398-.398-.398h-6c-.238 0-.398.16-.398.398 0 .242.16.403.398.403zm0 0M10 2.398H3.602v6.403H10zM9.2 8H4.397V3.2H9.2zm0 0"/>
</svg>
